X:1049
T:Petit Bucheux, Le
T:Reel des Bucherons
T:Woodchoppers, The
R:reel
C:Ned Landry (1921-2018), New Brunswick, Canada
D:Sharon Shannon
O:Canada
Z:id:hn-reel-1049
M:C|
L:1/8
K:D
DFAd B2A2 | DFAd B2A2 | A,CEG Aceg | agec A2GE |
DFAd B2A2 | DFAd B2A2 | A,CEG Acef |1 gece dBAF :|2 gece defg ||
|: afdB AdAF | DFAd f2ef | gecB Aefg | a^gab aef=g |
afdB ABAF | DFAd f2ef | gecB Acef |1 gece ~d3g :|2 gece d2AF ||

